img/logo_htmlacademy.svg

<svg width="115" height="33" viewBox="0 0 115 33" fill="none" xmlns="http://www.w3.org/2000/svg"><path d="M0 12.8691V15.4429H2.45789V12.8691H0z" fill="#f0c52e"/><path d="M11.6465 4.52562C10.0863 4.52562 8.82528 5.23341 8.03448 6.26294H7.94899V0H5.91858V15.4429H7.94899V10.1451C7.94899 8.02172 9.27412 6.49888 11.2191 6.49888 13.0571 6.49888 14.1258 7.87158 14.1258 9.71614V15.4429H16.1562V9.35153C16.1562 6.41308 14.3395 4.52562 11.6465 4.52562z" fill="#f0c52e"/><path d="M26.6171 4.82684H21.8082V1.07336H19.7778V4.82684H17.8542V6.8001H19.7778V12.7842C19.7778 14.5001 20.7396 15.4438 22.4708 15.4438h4.1463V13.4491H22.8769C22.193 13.4491 21.8082 13.063 21.8082 12.3981V6.8001H26.6171V4.82684z" fill="#f0c52e"/><path d="M41.1216 4.54712C39.4971 4.54712 38.2577 5.34071 37.5737 6.60617H37.5096C36.8897 5.36217 35.7356 4.54712 34.1541 4.54712 32.7434 4.54712 31.6747 5.29781 31.0336 6.3488H30.948V4.82596H29.0032V15.4429h2.0304V9.99503C31.0336 8.00032 32.0807 6.54184 33.6625 6.49894 35.1584 6.45604 36.0348 7.52846 36.0348 9.13708V15.4429H38.0653V9.82343C38.0653 7.44266 39.4759 6.49894 40.6941 6.49894 42.1689 6.49894 43.0452 7.52846 43.0452 9.13708V15.4429H45.0754V8.92261C45.0754 6.3488 43.6222 4.54712 41.1216 4.54712z" fill="#f0c52e"/><path d="M47.8271 12.6975C47.8271 14.4348 48.8103 15.4429 50.6269 15.4429H52.6359V13.4696H50.9261C50.2421 13.4696 49.8574 13.0835 49.8574 12.4186V0H47.8271V12.6975z" fill="#f0c52e"/><path d="M28.9048 19.6888H28.8192C28.027 18.6227 26.7425 17.8764 25.0295 17.8551 21.882 17.8124 19.6338 20.1365 19.6338 23.4202 19.6338 26.7252 21.9248 29.0494 25.008 29.0068 26.7637 28.9853 28.027 28.1965 28.8192 27.0663H28.9048V28.7081H30.9177V18.1536H28.9048V19.6888zM25.3077 27.0451C23.081 27.0451 21.6679 25.4245 21.6679 23.4202 21.6679 21.4159 23.081 19.7954 25.3077 19.7954 27.4703 19.7954 28.8836 21.4159 28.8836 23.4202 28.8836 25.4033 27.4703 27.0451 25.3077 27.0451z" fill="#f0c52e"/><path d="M44.2095 21.9916C43.717 19.6035 41.5973 17.8551 38.8139 17.8551 35.4524 17.8551 33.2042 20.3072 33.2042 23.4203 33.2042 26.5333 35.4524 29.0068 38.8139 29.0068 41.5973 29.0068 43.717 27.2157 44.2095 24.8062H42.0898C41.6617 26.1495 40.3984 27.0663 38.8354 27.0663 36.6513 27.0663 35.2381 25.4245 35.2381 23.4203 35.2381 21.4159 36.6513 19.7954 38.8354 19.7954 40.4625 19.7954 41.6617 20.7549 42.0898 21.9916H44.2095z" fill="#f0c52e"/><path d="M55.0836 19.6888H54.998C54.2058 18.6227 52.921 17.8764 51.2081 17.8551 48.0607 17.8124 45.8125 20.1365 45.8125 23.4202 45.8125 26.7252 48.1036 29.0494 51.1866 29.0068 52.9425 28.9853 54.2058 28.1965 54.998 27.0663H55.0836V28.7081H57.0962V18.1536H55.0836V19.6888zM51.4866 27.0451C49.2596 27.0451 47.8466 25.4245 47.8466 23.4202 47.8466 21.4159 49.2596 19.7954 51.4866 19.7954 53.6491 19.7954 55.0622 21.4159 55.0622 23.4202 55.0622 25.4033 53.6491 27.0451 51.4866 27.0451z" fill="#f0c52e"/><path d="M68.6538 19.7953H68.5682C67.776 18.6652 66.4483 17.8763 64.7568 17.855 61.6738 17.8123 59.3827 20.1365 59.3827 23.4415 59.3827 26.7251 61.6309 29.0493 64.7783 29.0067 66.4483 28.9853 67.776 28.239 68.5468 27.1729H68.6538V28.708H70.6665V13.356H68.6538V19.7953zM65.0568 27.0662C62.8298 27.0662 61.4168 25.4458 61.4168 23.4415 61.4168 21.4372 62.8298 19.8166 65.0568 19.8166 67.2193 19.8166 68.6324 21.4585 68.6324 23.4415 68.6324 25.4458 67.2193 27.0662 65.0568 27.0662z" fill="#f0c52e"/><path d="M78.3297 17.8551C75.0752 17.8551 72.8483 20.3498 72.8483 23.4416 72.8483 26.448 74.9467 29.0068 78.3724 29.0068 80.8561 29.0068 82.8475 27.6634 83.5541 25.4245H81.4342C80.9634 26.4268 79.8286 27.0663 78.4582 27.0663 76.5312 27.0663 75.1608 25.787 75.0108 24.1452H83.7682C84.0464 20.627 81.8412 17.8551 78.3297 17.8551zM78.2868 19.7954C79.9783 19.7954 81.2416 20.8402 81.5627 22.3541H75.0538C75.3534 20.8615 76.6168 19.7954 78.2868 19.7954z" fill="#f0c52e"/><path d="M98.1985 17.8762C96.5713 17.8762 95.3295 18.6651 94.6443 19.9232H94.5799C93.9591 18.6865 92.8029 17.8762 91.2184 17.8762 89.8054 17.8762 88.7347 18.6225 88.0924 19.6673H88.0068V18.1534H86.0583V28.7079H88.0924V23.2921C88.0924 21.3091 89.1417 19.8592 90.7261 19.8165 92.2247 19.7739 93.1028 20.84 93.1028 22.4392V28.7079H95.1368V23.1215C95.1368 20.7547 96.5499 19.8165 97.7703 19.8165 99.2477 19.8165 100.125 20.84 100.125 22.4392V28.7079H102.16V22.226C102.16 19.6673 100.704 17.8762 98.1985 17.8762z" fill="#f0c52e"/><path d="M109.441 27.0237 105.801 18.1536H103.553L108.392 29.7104 108.371 29.753C108.028 30.6272 107.643 30.947 106.701 30.947H104.196V32.9726H106.701C108.542 32.9726 109.527 32.1411 110.212 30.3499L114.88 18.1536H112.803L109.441 27.0237z" fill="#f0c52e"/></svg>

<svg width="115" height="33" fill="none" xmlns="http://www.w3.org/2000/svg"><path d="M0 12.87v2.57h2.46v-2.57H0zM11.65 4.53c-1.56 0-2.82.7-3.62 1.73h-.08V0H5.92v15.44h2.03v-5.3c0-2.12 1.32-3.64 3.27-3.64 1.84 0 2.9 1.37 2.9 3.22v5.72h2.04V9.35c0-2.94-1.82-4.82-4.51-4.82zM26.62 4.83H21.8V1.07h-2.03v3.76h-1.93V6.8h1.93v5.98c0 1.72.96 2.66 2.7 2.66h4.14v-2h-3.74c-.69 0-1.07-.38-1.07-1.04V6.8h4.8V4.83zM41.12 4.55c-1.62 0-2.86.8-3.55 2.06h-.06a3.6 3.6 0 00-3.36-2.06c-1.4 0-2.48.75-3.12 1.8h-.08V4.83H29v10.61h2.03V10c0-2 1.05-3.46 2.63-3.5 1.5-.04 2.37 1.03 2.37 2.64v6.3h2.04V9.82c0-2.38 1.4-3.32 2.62-3.32 1.48 0 2.36 1.03 2.36 2.64v6.3h2.03V8.92c0-2.57-1.46-4.37-3.96-4.37zM47.83 12.7c0 1.73.98 2.74 2.8 2.74h2v-1.97h-1.7c-.69 0-1.07-.39-1.07-1.05V0h-2.03v12.7zM28.9 19.69h-.08a4.64 4.64 0 00-3.8-1.83c-3.14-.05-5.39 2.28-5.39 5.56 0 3.3 2.3 5.63 5.38 5.59a4.53 4.53 0 003.8-1.94h.1v1.64h2V18.15h-2v1.54zm-3.6 7.36a3.5 3.5 0 01-3.63-3.63c0-2 1.41-3.62 3.64-3.62a3.48 3.48 0 013.57 3.62 3.5 3.5 0 01-3.57 3.63zM44.2 22c-.48-2.4-2.6-4.14-5.39-4.14a5.4 5.4 0 00-5.6 5.56 5.42 5.42 0 005.6 5.59c2.79 0 4.9-1.8 5.4-4.2h-2.12a3.32 3.32 0 01-3.25 2.26 3.5 3.5 0 01-3.6-3.65c0-2 1.41-3.62 3.6-3.62 1.62 0 2.82.95 3.25 2.2h2.12zM55.08 19.69H55a4.64 4.64 0 00-3.8-1.83c-3.14-.05-5.39 2.28-5.39 5.56 0 3.3 2.3 5.63 5.38 5.59a4.53 4.53 0 003.8-1.94h.1v1.64h2V18.15h-2v1.54zm-3.6 7.36a3.5 3.5 0 01-3.63-3.63c0-2 1.41-3.62 3.64-3.62a3.48 3.48 0 013.57 3.62 3.5 3.5 0 01-3.57 3.63zM68.65 19.8h-.08a4.62 4.62 0 00-3.81-1.95c-3.09-.04-5.38 2.29-5.38 5.6 0 3.28 2.25 5.6 5.4 5.56 1.67-.02 3-.77 3.77-1.84h.1v1.54h2.02V13.36h-2.02v6.44zm-3.6 7.27a3.5 3.5 0 01-3.63-3.63c0-2 1.41-3.62 3.64-3.62a3.5 3.5 0 013.57 3.62c0 2-1.41 3.63-3.57 3.63zM78.33 17.86a5.4 5.4 0 00-5.48 5.58c0 3 2.1 5.57 5.52 5.57 2.49 0 4.48-1.35 5.18-3.59h-2.12c-.47 1-1.6 1.65-2.97 1.65-1.93 0-3.3-1.28-3.45-2.92h8.76c.28-3.52-1.93-6.3-5.44-6.3zm-.04 1.94a3.2 3.2 0 013.27 2.55h-6.5a3.18 3.18 0 013.23-2.55zM98.2 17.88c-1.63 0-2.87.79-3.56 2.04h-.06a3.6 3.6 0 00-3.36-2.04 3.6 3.6 0 00-3.13 1.79h-.08v-1.52h-1.95v10.56h2.03v-5.42c0-1.98 1.05-3.43 2.64-3.47 1.5-.05 2.37 1.02 2.37 2.62v6.27h2.04v-5.59c0-2.37 1.41-3.3 2.63-3.3 1.48 0 2.36 1.02 2.36 2.62v6.27h2.03v-6.48c0-2.56-1.46-4.35-3.96-4.35zM109.44 27.02l-3.64-8.87h-2.25l4.84 11.56-.02.04c-.34.88-.73 1.2-1.67 1.2h-2.5v2.02h2.5c1.84 0 2.83-.83 3.51-2.62l4.67-12.2h-2.08l-3.36 8.87z" fill="#F0C52E"/><!-- Code injected by live-server -->
</svg>
